!!!OTL@@DE: Brautjungfernlied
!!!COM: Weber, Carl Maria von
!!!ODT: 1820
!!!OPR: Oper: "Der Freisch&uuml;tz
!!!OMD: Andante quasi Allegretto
!!!LYR: Kind, Friedrich
!!!LDT: 1817
!!!OCL: Erk, Ludwig
!!!GCO: Deutscher Liederschatz, Band 1
**kern	**kern	**kern
*staff3	*staff2	*staff1
*Ipiano	*Ipiano	*Ivox
*>[I,A,A]	*>[I,A,A]	*>[I,A,A]
*>norep[I,A]	*>norep[I,A]	*>norep[I,A]
*>I	*>I	*>I
=1-	=1-	=1-
*clefF4	*clefG2	*clefG2
*k[b-e-]	*k[b-e-]	*k[b-e-]
*B-:	*B-:	*B-:
*M2/4	*M2/4	*M2/4
*MM72	*MM72	*MM72
8BB-/ 8F/L	8d/ 8b-/L	2r
8FF/ 8F/	8f/ 8dd/	.
8BB-/ 8F/	8d/ 8b-/	.
8FF/ 8F/J	8f/ 8dd/J	.
=2	=2	=2
8BB-/ 8F/L	8d/ 8b-/L	2r
8FF/ 8F/	8f/ 8dd/	.
8BB-/ 8F/	8d/ 8b-/	.
8F/J	8d/ 8f/J	.
=3	=3	=3
*	*^	*
8BB-\ 8F\L	16b-/LL	8d\L	2r
.	16a/	.	.
8BB-\ 8F\	16b-/	8d\	.
.	16cc/JJ	.	.
8BB-\ 8F\J	16dd/	8d\J	.
.	16r	.	.
8r	8f/	8r	.
=4	=4	=4	=4
8BB-\ 8F\L	16b-/LL	8d\L	2r
.	16a/	.	.
8BB-\ 8F\	16b-/	8d\	.
.	16cc/JJ	.	.
8BB-\ 8F\J	16dd/	8d\J	.
.	16r	.	.
8r	8ryy	8b-\ 8dd\	.
*	*v	*v	*
=5	=5	=5
2FF/ 2F/	8.a\ 8.cc\L	2r
.	16b-\ 16dd\Jk	.
.	16.a/ 16.cc/LL	.
.	32g/ 32b-/k	.
.	16.f/ 16.a/	.
.	32e-/ 32g/JJk	.
=6	=6	=6
8BB-\ 8F\	16.d/ 16.f/LL	2r
.	32c/ 32e-/JJk	.
4BB-\ 4F\	4B-/ 4d/	.
8r	8f/	.
=7	=7	=7
*	*^	*
8BB-\ 8F\ 8B-\L	16b-/LL	8d\L	2r
.	16a/	.	.
8BB-\ 8F\ 8B-\	16b-/	8d\	.
.	16cc/JJ	.	.
8BB-\ 8F\ 8B-\J	16dd/	8d\J	.
.	16r	.	.
8r	8f/	8r	.
=8	=8	=8	=8
8BB-\ 8F\ 8B-\L	16b-/LL	8d\L	2r
.	16a/	.	.
8BB-\ 8F\ 8B-\	16b-/	8d\J	.
.	16cc/JJ	.	.
8BB-\ 8F\ 8B-\J	16dd/LL	8f\L	.
.	16cc/	.	.
8r	16dd/	8f\J	.
.	16ee-/JJ	.	.
=9	=9	=9	=9
8F\ 8d\L	16gg/LL	8b-\L	2r
.	16ff/	.	.
8F\ 8d\J	16ee-/	8b-\J	.
.	16dd/JJ	.	.
8F\ 8c\L	16ff/LL	8a\L	.
.	16ee-/	.	.
8F\ 8A\J	16.cc/	8f\J	.
.	32a/JJk	.	.
=10	=10	=10	=10
4F\ (4A\	(4f^/	4e-\	4r
&(8BB-\&) 8B-\)	8b-/)	&(8d\&)	8r
*	*v	*v	*
=	=	=
*>A	*>A	*>A
8r	8r	8f/
=11	=11	=11
8BB-\ 8F\L	8B-/ 8d/L	16b-/LL
.	.	16a/JJ
8BB-\ 8F\	8B-/ 8d/	16b-\LL
.	.	16cc\JJ
8BB-\ 8F\J	8B-/ 8d/J	8dd\
8r	8r	8f/
=12	=12	=12
8BB-\ 8F\L	8B-/ 8d/L	16b-/LL
.	.	16a/JJ
8BB-\ 8F\	8B-/ 8d/	16b-\LL
.	.	16cc\JJ
8BB-\ 8F\J	8B-/ 8d/J	8dd\
8r	16r	16r
.	16b-\ 16dd\	16dd\
=13	=13	=13
2FF/ 2F/	8.a\ (8.cc\L	8.cc\
.	16b-\ 16dd\Jk)	16dd\
.	(16.a/ 16.cc/LL	16cc\LL
.	.	16b-\JJ
.	32g/ 32b-/k	.
.	16.f/ 16.a/	16a/LL
.	.	16g/JJ
.	32e-/) 32g/JJk	.
=14	=14	=14
8BB-\ 8F\	(16.d/ 16.f/LL	16.f/LL
.	32c/ 32e-/JJk	32e-/JJk
4BB-\ 4F\	4B-/) 4d/	4d/
8r	8r	8f/
=15	=15	=15
8BB-\ 8F\L	8B-/ 8d/L	16b-/LL
.	.	16a/JJ
8BB-\ 8F\	8B-/ 8d/	16b-\LL
.	.	16cc\JJ
8BB-\ 8F\J	8B-/ 8d/J	8dd\
8r	8r	8f/
=16	=16	=16
8BB-\ 8F\L	8B-/ 8d/L	16b-/LL
.	.	16a/JJ
8BB-\ 8F\	8B-/ 8d/	16b-\LL
.	.	16cc\JJ
8BB-\ 8F\J	8B-/ 8d/J	8dd\
8r	16r	16r
.	16b-\ 16dd\	16dd\
=17	=17	=17
*^	*	*
4C\	2C/	8.a\ (8.cc\L	8.cc\
.	.	16b-\ 16dd\Jk)	16dd\
8..c\L	.	(16.a/ 16.cc/LL	16cc\LL
.	.	.	16b-\JJ
.	.	32g/ 32b-/k	.
.	.	16.f/ 16.a/	16a/LL
.	.	.	16g/JJ
32B-\Jkk	.	32en/) 32g/JJk	.
*v	*v	*	*
=18	=18	=18
*	*^	*
2F\ 2A\	(8.f/L	2c\	(8.f/L
.	32a/LL	.	32a/LL
.	32g/JJJ)	.	32g/JJJ)
.	4f/	.	8f/
.	.	.	8r
*	*v	*v	*
=19	=19	=19
*	*	*^
8BB-/ 8F/L	8B-/ 8d/L	4b-/	4d\
8FF/ 8F/	8d/ 8f/	.	.
8BB-/ 8F/	8B-/ 8d/	4dd/	4b-\
8FF/ 8F/J	8d/ 8f/J	.	.
=20	=20	=20	=20
8BB-/ 8F/L	8B-/ 8d/L	4ff/	4dd\
8FF/ 8F/	8d/ 8f/	.	.
8BB-/ 8F/	8B-/ 8d/	4dd/	8b-\L
8D/ 8F/J	8f/J	.	8f\J
=21	=21	=21	=21
8F\ 8A\L	8c/ 8e-/L	16.cc/	16.e-\
.	.	32b-/	32d\
8F\ 8A\	8f/	16.a/	16.c\
.	.	32b-/	32d\
8F\ 8A\	8c/ 8e-/	8cc/	8e-\
8F\ 8A\J	8f/J	8dd/	8f\
=22	=22	=22	=22
8BB-/ 8F/L	8B-/ 8d/L	2b-/	2d\
8FF/ 8F/	8d/ 8f/	.	.
8BB-/ 8F/	8B-/ 8d/	.	.
8FF/ 8F/J	8d/ 8f/J	.	.
=23	=23	=23	=23
*	*^	*	*
8F\ 8A\L	(16cc/LL	8e-\L	(16cc/LL	8e-\
.	16f/J	.	16f/JJ	.
8F\ 8A\	8f/J)	8e-\J	8f/)	8e-\
8F\ 8A\	(16cc/LL	8e-\L	(16cc/LL	8e-\
.	16f/J	.	16f/JJ	.
8F\ 8A\J	8f/J)	8e-\J	8f/)	8e-\
*	*v	*v	*	*
=24	=24	=24	=24
8BB-/ 8F/L	(16d/ 16b-/LL	16b-/LL	16d\LL
.	16f/) 16cc/JJ	16cc/JJ	16f\JJ
8FF/ 8F/	4.b-\ 4.dd\	4.dd/	4.b-\
8BB-/ 8F/	.	.	.
8FF/ 8F/J	.	.	.
=25	=25	=25	=25
2r	8.dd\ (8.ff\L	8.ff/	8.dd\
.	32cc\ 32ee-\LL	32ee-/LLL	32cc\LLL
.	32b-\ 32dd\JJJ)	32dd/JJJ	32b-\JJJ
.	(16a/ 16cc/LL	16cc/LL	16a\LL
.	16g/ 16b-/	16b-/JJ	16g\JJ
.	16f/ 16a/	16a/LL	16f\LL
.	16e-/) 16g/JJ	16g/JJ	16e-\JJ
=26	=26	=26	=26
4r	(16.d/ 16.f/LL	16.f/LL	16.d\LL
.	32c/) 32e-/JJk	32e-/JJk	32c'\JJk
.	8B-/ 8d/	4d/	4B-\
16r	16r	.	.
16f\LL	16ff\LL	.	.
*	*	*v	*v
(16f\	(16ff\	8r
16d\JJ	16dd\JJ)	.
=27	=27	=27
(16d\LL)	16dd/LL	2r
16B-\	&(16b-/&)	.
(16B-\)	16b-/	.
16F\JJ)	&(16f/JJ&)	.
8F\L	8f/L	.
*	*^	*
8F\ 8A\J	16.dd/L	8e-\	.
.	32cc/JJk	.	.
*	*v	*v	*
=28	=28	=28
4.BB-\ 4.F\ 4.B-\	4.d/ 4.b-/	4r
.	.	8r
=	=	=
*-	*-	*-
!!!ENC: Craig Stuart Sapp
!!!END: 2004/06/04/
!!!EFL: 126/651
